site/images/email.svg

<svg id="Layer_1" enable-background="new 0 0 27.3 27.5" viewBox="0 0 27.3 27.5" xmlns="http://www.w3.org/2000/svg"><g fill="#5d5a61"><path d="m24.3 27.5h-21.3c-1.7 0-3-1.3-3-3v-12.9c0-.9.4-1.7 1.1-2.3l9.8-8.3c1.6-1.4 4-1.4 5.6 0l9.8 8.3c.7.6 1.1 1.4 1.1 2.3v12.9c-.1 1.7-1.4 3-3.1 3zm-10.6-25.9c-.6 0-1.2.2-1.7.6l-9.8 8.3c-.3.3-.5.6-.5 1.1v12.9c0 .8.6 1.4 1.4 1.4h21.3c.8 0 1.4-.6 1.4-1.4v-12.9c0-.4-.2-.8-.5-1.1l-9.8-8.3c-.6-.4-1.2-.6-1.8-.6z"/><path d="m13.6 19.6c-.1 0-.3 0-.4-.1l-10.5-5.8c-.4-.2-.5-.7-.3-1.1s.7-.5 1.1-.3l10.1 5.6 10.1-5.6c.4-.2.9-.1 1.1.3s.1.9-.3 1.1l-10.5 5.8c-.2.1-.3.1-.4.1z"/><path d="m20.2 15.7c-.4 0-.8-.4-.8-.8v-5.1h-11.4v5.1c0 .4-.4.8-.8.8s-.8-.4-.8-.8v-5.9c0-.4.4-.8.8-.8h13c .4 0 .8.3.8.8v5.9c0 .5-.4.8-.8.8z"/><path d="m17.3 12.8h-7.3c-.4 0-.8-.4-.8-.8s.4-.8.8-.8h7.3c.4 0 .8.4.8.8s-.3.8-.8.8z"/><path d="m17.3 14.9h-7.3c-.4 0-.8-.4-.8-.8s.4-.8.8-.8h7.3c.4 0 .8.4.8.8s-.3.8-.8.8z"/></g></svg>

<?xml version="1.0" encoding="utf-8"?>
<!-- Generator: Adobe Illustrator 19.2.1, SVG Export Plug-In . SVG Version: 6.00 Build 0)  -->
<svg version="1.1" id="Layer_1" xmlns="http://www.w3.org/2000/svg" xmlns:xlink="http://www.w3.org/1999/xlink" x="0px" y="0px"
	 viewBox="0 0 27.3 27.5" style="enable-background:new 0 0 27.3 27.5;" xml:space="preserve">
<style type="text/css">
	.st0{fill:#5D5A61;}
</style>
<g>
	<g>
		<path class="st0" d="M24.3,27.5H3c-1.7,0-3-1.3-3-3V11.6c0-0.9,0.4-1.7,1.1-2.3L10.9,1c1.6-1.4,4-1.4,5.6,0l9.8,8.3
			c0.7,0.6,1.1,1.4,1.1,2.3v12.9C27.3,26.2,26,27.5,24.3,27.5z M13.7,1.6c-0.6,0-1.2,0.2-1.7,0.6l-9.8,8.3c-0.3,0.3-0.5,0.6-0.5,1.1
			v12.9c0,0.8,0.6,1.4,1.4,1.4h21.3c0.8,0,1.4-0.6,1.4-1.4V11.6c0-0.4-0.2-0.8-0.5-1.1l-9.8-8.3C14.9,1.8,14.3,1.6,13.7,1.6z"/>
	</g>
	<g>
		<path class="st0" d="M13.6,19.6c-0.1,0-0.3,0-0.4-0.1L2.7,13.7c-0.4-0.2-0.5-0.7-0.3-1.1c0.2-0.4,0.7-0.5,1.1-0.3l10.1,5.6
			l10.1-5.6c0.4-0.2,0.9-0.1,1.1,0.3c0.2,0.4,0.1,0.9-0.3,1.1L14,19.5C13.8,19.6,13.7,19.6,13.6,19.6z"/>
	</g>
	<g>
		<path class="st0" d="M20.2,15.7c-0.4,0-0.8-0.4-0.8-0.8V9.8H8v5.1c0,0.4-0.4,0.8-0.8,0.8s-0.8-0.4-0.8-0.8V9
			c0-0.4,0.4-0.8,0.8-0.8h13C20.6,8.2,21,8.5,21,9v5.9C21,15.4,20.6,15.7,20.2,15.7z"/>
	</g>
	<g>
		<path class="st0" d="M17.3,12.8H10c-0.4,0-0.8-0.4-0.8-0.8c0-0.4,0.4-0.8,0.8-0.8h7.3c0.4,0,0.8,0.4,0.8,0.8
			C18.1,12.4,17.8,12.8,17.3,12.8z"/>
	</g>
	<g>
		<path class="st0" d="M17.3,14.9H10c-0.4,0-0.8-0.4-0.8-0.8s0.4-0.8,0.8-0.8h7.3c0.4,0,0.8,0.4,0.8,0.8S17.8,14.9,17.3,14.9z"/>
	</g>
</g>
</svg>
